en/_assets/tracker/changelogs/status-5-closed.svg

<svg width="154" height="20" viewBox="0 0 154 20" fill="none" xmlns="http://www.w3.org/2000/svg">
<rect width="154" height="20" rx="5" fill="black" fill-opacity="0.05"/>
<path fill-rule="evenodd" clip-rule="evenodd" d="M15.3226 14.3833C14.3996 15.0841 13.2484 15.5 12 15.5C8.96243 15.5 6.5 13.0376 6.5 10C6.5 8.75165 6.9159 7.60043 7.6167 6.67736L15.3226 14.3833ZM16.3833 13.3226L8.67736 5.6167C9.60043 4.9159 10.7516 4.5 12 4.5C15.0376 4.5 17.5 6.96243 17.5 10C17.5 11.2484 17.0841 12.3996 16.3833 13.3226ZM19 10C19 13.866 15.866 17 12 17C8.13401 17 5 13.866 5 10C5 6.13401 8.13401 3 12 3C15.866 3 19 6.13401 19 10Z" fill="black" fill-opacity="0.7"/>
<path d="M31.4078 9.931H26.6238V14H25.4018V4.679H26.6238V8.826H31.4078V4.679H32.6428V14H31.4078V9.931ZM40.0223 13.428C39.927 13.4973 39.81 13.571 39.6713 13.649C39.5326 13.727 39.3636 13.805 39.1643 13.883C38.965 13.9523 38.7396 14.0087 38.4883 14.052C38.237 14.104 37.9553 14.13 37.6433 14.13C36.508 14.13 35.6456 13.8223 35.0563 13.207C34.467 12.5917 34.1723 11.7293 34.1723 10.62C34.1723 10.074 34.2503 9.58433 34.4063 9.151C34.571 8.71767 34.7963 8.35367 35.0823 8.059C35.3683 7.75567 35.7063 7.526 36.0963 7.37C36.4863 7.20533 36.911 7.123 37.3703 7.123C37.8556 7.123 38.289 7.20533 38.6703 7.37C39.0516 7.53467 39.3636 7.77733 39.6063 8.098C39.8576 8.41867 40.0266 8.81733 40.1133 9.294C40.2086 9.762 40.2086 10.308 40.1133 10.932H35.3553C35.3986 11.66 35.6153 12.206 36.0053 12.57C36.3953 12.9253 36.976 13.103 37.7473 13.103C38.2673 13.103 38.7136 13.0293 39.0863 12.882C39.459 12.7347 39.771 12.5743 40.0223 12.401V13.428ZM37.3443 8.137C36.8503 8.137 36.4256 8.28867 36.0703 8.592C35.715 8.89533 35.4896 9.35467 35.3943 9.97H39.0213C39.056 9.346 38.913 8.88667 38.5923 8.592C38.2716 8.28867 37.8556 8.137 37.3443 8.137ZM50.5888 10.62C50.5888 11.1833 50.5022 11.6817 50.3288 12.115C50.1642 12.5483 49.9345 12.9167 49.6398 13.22C49.3538 13.5147 49.0115 13.74 48.6128 13.896C48.2142 14.052 47.7808 14.13 47.3128 14.13C46.8362 14.13 46.3985 14.052 45.9998 13.896C45.6012 13.7313 45.2588 13.4843 44.9728 13.155C44.6868 12.8257 44.4615 12.4097 44.2968 11.907C44.1408 11.4043 44.0628 10.8107 44.0628 10.126C44.0628 9.56267 44.0802 9.02533 44.1148 8.514C44.1495 8.00267 44.2275 7.53033 44.3488 7.097C44.4702 6.655 44.6435 6.26067 44.8688 5.914C45.1028 5.55867 45.4148 5.264 45.8048 5.03C46.0215 4.9 46.2468 4.80467 46.4808 4.744C46.7148 4.67467 46.9488 4.62267 47.1828 4.588C47.4255 4.55333 47.6682 4.53167 47.9108 4.523C48.1535 4.51433 48.3918 4.50567 48.6258 4.497C48.9725 4.471 49.2628 4.42767 49.4968 4.367C49.7308 4.30633 49.9388 4.224 50.1208 4.12V5.16C49.9302 5.28133 49.7265 5.368 49.5098 5.42C49.3018 5.46333 49.0462 5.50233 48.7428 5.537C48.2488 5.58033 47.7938 5.615 47.3778 5.641C46.9705 5.65833 46.5978 5.75367 46.2598 5.927C45.8265 6.16967 45.5188 6.53367 45.3368 7.019C45.1635 7.49567 45.0552 8.06333 45.0118 8.722C45.4625 7.682 46.3118 7.162 47.5598 7.162C47.9845 7.162 48.3788 7.24 48.7428 7.396C49.1155 7.54333 49.4362 7.76433 49.7048 8.059C49.9822 8.35367 50.1988 8.71767 50.3548 9.151C50.5108 9.57567 50.5888 10.0653 50.5888 10.62ZM47.3128 13.103C47.6162 13.103 47.8935 13.0553 48.1448 12.96C48.4048 12.856 48.6302 12.7043 48.8208 12.505C49.0115 12.297 49.1588 12.037 49.2628 11.725C49.3668 11.413 49.4188 11.0447 49.4188 10.62C49.4188 10.1953 49.3668 9.827 49.2628 9.515C49.1588 9.203 49.0115 8.94733 48.8208 8.748C48.6302 8.54 48.4048 8.38833 48.1448 8.293C47.8935 8.189 47.6162 8.137 47.3128 8.137C46.7148 8.137 46.2165 8.33633 45.8178 8.735C45.4278 9.13367 45.2328 9.749 45.2328 10.581C45.2328 11.0143 45.2848 11.3913 45.3888 11.712C45.4928 12.024 45.6358 12.284 45.8178 12.492C46.0085 12.7 46.2295 12.856 46.4808 12.96C46.7322 13.0553 47.0095 13.103 47.3128 13.103ZM55.2085 13.922C55.0525 14.3293 54.8879 14.6847 54.7145 14.988C54.5412 15.3 54.3462 15.5643 54.1295 15.781C53.9129 15.9977 53.6702 16.158 53.4015 16.262C53.1329 16.3747 52.8252 16.431 52.4785 16.431C52.3052 16.431 52.1449 16.418 51.9975 16.392C51.8502 16.3747 51.7159 16.34 51.5945 16.288V15.183C51.6899 15.2523 51.8112 15.3043 51.9585 15.339C52.1059 15.3823 52.2662 15.404 52.4395 15.404C52.7602 15.404 53.0245 15.326 53.2325 15.17C53.4405 15.0227 53.6399 14.7843 53.8305 14.455L51.0875 7.253H52.3485L54.4935 12.947L56.6255 7.253H57.7305L55.2085 13.922ZM58.1057 13.025C58.3484 12.8777 58.539 12.648 58.6777 12.336C58.8164 12.024 58.9247 11.6297 59.0027 11.153C59.0807 10.6763 59.1327 10.113 59.1587 9.463C59.1934 8.813 59.2237 8.07633 59.2497 7.253H63.8907V13.025H64.9047V15.924H63.9037L63.7607 14H58.7427L58.6257 15.924H57.5987V13.025H58.1057ZM62.7467 13.025V8.228H60.2767C60.2334 9.502 60.151 10.5247 60.0297 11.296C59.917 12.0587 59.7177 12.635 59.4317 13.025H62.7467ZM71.3416 13.428C71.2463 13.4973 71.1293 13.571 70.9906 13.649C70.852 13.727 70.683 13.805 70.4836 13.883C70.2843 13.9523 70.059 14.0087 69.8076 14.052C69.5563 14.104 69.2746 14.13 68.9626 14.13C67.8273 14.13 66.965 13.8223 66.3756 13.207C65.7863 12.5917 65.4916 11.7293 65.4916 10.62C65.4916 10.074 65.5696 9.58433 65.7256 9.151C65.8903 8.71767 66.1156 8.35367 66.4016 8.059C66.6876 7.75567 67.0256 7.526 67.4156 7.37C67.8056 7.20533 68.2303 7.123 68.6896 7.123C69.175 7.123 69.6083 7.20533 69.9896 7.37C70.371 7.53467 70.683 7.77733 70.9256 8.098C71.177 8.41867 71.346 8.81733 71.4326 9.294C71.528 9.762 71.528 10.308 71.4326 10.932H66.6746C66.718 11.66 66.9346 12.206 67.3246 12.57C67.7146 12.9253 68.2953 13.103 69.0666 13.103C69.5866 13.103 70.033 13.0293 70.4056 12.882C70.7783 12.7347 71.0903 12.5743 71.3416 12.401V13.428ZM68.6636 8.137C68.1696 8.137 67.745 8.28867 67.3896 8.592C67.0343 8.89533 66.809 9.35467 66.7136 9.97H70.3406C70.3753 9.346 70.2323 8.88667 69.9116 8.592C69.591 8.28867 69.175 8.137 68.6636 8.137ZM75.6213 8.228V14H74.4773V8.228H72.3583V7.253H77.7793V8.228H75.6213ZM83.1 12.44L86.701 7.253H87.858V14H86.714V8.826L83.126 14H81.956V7.253H83.1V12.44ZM92.6376 14.13C92.1176 14.13 91.6452 14.052 91.2206 13.896C90.8046 13.7313 90.4492 13.5017 90.1546 13.207C89.8599 12.9037 89.6346 12.5353 89.4786 12.102C89.3226 11.6687 89.2446 11.1747 89.2446 10.62C89.2446 10.074 89.3226 9.58433 89.4786 9.151C89.6432 8.71767 89.8729 8.35367 90.1676 8.059C90.4622 7.75567 90.8219 7.526 91.2466 7.37C91.6712 7.20533 92.1522 7.123 92.6896 7.123C93.1056 7.123 93.4869 7.17067 93.8336 7.266C94.1802 7.35267 94.4662 7.48267 94.6916 7.656V8.683C94.4142 8.501 94.1022 8.36667 93.7556 8.28C93.4176 8.18467 93.0666 8.137 92.7026 8.137C91.9139 8.137 91.3332 8.34067 90.9606 8.748C90.5966 9.15533 90.4146 9.77933 90.4146 10.62C90.4146 11.4607 90.5922 12.0847 90.9476 12.492C91.3029 12.8993 91.8662 13.103 92.6376 13.103C93.0449 13.103 93.4176 13.0553 93.7556 12.96C94.1022 12.856 94.4142 12.726 94.6916 12.57V13.597C94.4489 13.7443 94.1542 13.87 93.8076 13.974C93.4696 14.078 93.0796 14.13 92.6376 14.13ZM96.2256 7.253H101.634V14H100.49V8.228H97.3696V14H96.2256V7.253ZM106.893 14.13C106.373 14.13 105.922 14.0087 105.541 13.766C105.168 13.5233 104.869 13.1897 104.644 12.765V16.301H103.5V7.253H104.501L104.618 8.566C104.843 8.124 105.147 7.773 105.528 7.513C105.909 7.253 106.382 7.123 106.945 7.123C107.335 7.123 107.708 7.19667 108.063 7.344C108.427 7.48267 108.743 7.69933 109.012 7.994C109.289 8.28 109.506 8.644 109.662 9.086C109.827 9.51933 109.909 10.0307 109.909 10.62C109.909 11.218 109.827 11.738 109.662 12.18C109.497 12.6133 109.276 12.9773 108.999 13.272C108.722 13.558 108.401 13.7747 108.037 13.922C107.673 14.0607 107.292 14.13 106.893 14.13ZM106.724 13.103C107.322 13.103 107.803 12.8993 108.167 12.492C108.54 12.076 108.726 11.452 108.726 10.62C108.726 9.80533 108.54 9.19 108.167 8.774C107.803 8.34933 107.322 8.137 106.724 8.137C106.429 8.137 106.152 8.189 105.892 8.293C105.641 8.397 105.42 8.553 105.229 8.761C105.047 8.96033 104.9 9.216 104.787 9.528C104.683 9.84 104.631 10.204 104.631 10.62C104.631 11.036 104.683 11.4 104.787 11.712C104.9 12.024 105.047 12.284 105.229 12.492C105.42 12.7 105.641 12.856 105.892 12.96C106.152 13.0553 106.429 13.103 106.724 13.103ZM115.183 12.713C115.105 12.869 115.006 13.0337 114.884 13.207C114.763 13.3717 114.611 13.5233 114.429 13.662C114.247 13.8007 114.031 13.9133 113.779 14C113.537 14.0867 113.251 14.13 112.921 14.13C112.315 14.13 111.825 13.961 111.452 13.623C111.08 13.2763 110.893 12.7823 110.893 12.141C110.893 11.4043 111.149 10.8627 111.66 10.516C112.18 10.1693 112.917 9.996 113.87 9.996H115.131V9.437C115.131 8.969 115.01 8.63533 114.767 8.436C114.525 8.23667 114.109 8.137 113.519 8.137C113.103 8.137 112.709 8.20633 112.336 8.345C111.964 8.475 111.63 8.62667 111.335 8.8V7.773C111.578 7.62567 111.903 7.48267 112.31 7.344C112.726 7.19667 113.181 7.123 113.675 7.123C114.525 7.123 115.17 7.30067 115.612 7.656C116.054 8.00267 116.275 8.54433 116.275 9.281V12.908C116.275 12.986 116.275 13.077 116.275 13.181C116.284 13.2763 116.288 13.376 116.288 13.48C116.297 13.584 116.306 13.6837 116.314 13.779C116.323 13.8657 116.332 13.9393 116.34 14H115.3C115.274 13.8787 115.248 13.7097 115.222 13.493C115.205 13.2677 115.196 13.0727 115.196 12.908L115.183 12.713ZM113.168 13.103C113.524 13.103 113.827 13.0293 114.078 12.882C114.33 12.7347 114.533 12.5657 114.689 12.375C114.845 12.1757 114.958 11.985 115.027 11.803C115.097 11.6123 115.131 11.478 115.131 11.4V10.906H113.987C113.303 10.906 112.804 11.0057 112.492 11.205C112.189 11.3957 112.037 11.686 112.037 12.076C112.037 12.3793 112.128 12.6263 112.31 12.817C112.492 13.0077 112.778 13.103 113.168 13.103ZM118.074 7.253H120.596C121.411 7.253 122.026 7.396 122.442 7.682C122.858 7.95933 123.066 8.397 123.066 8.995C123.066 9.39367 122.962 9.71433 122.754 9.957C122.555 10.191 122.269 10.36 121.896 10.464C122.858 10.62 123.339 11.153 123.339 12.063C123.339 12.4097 123.27 12.7087 123.131 12.96C122.993 13.2027 122.802 13.402 122.559 13.558C122.317 13.714 122.022 13.8267 121.675 13.896C121.337 13.9653 120.969 14 120.57 14H118.074V7.253ZM119.218 8.228V10.061H120.492C120.926 10.061 121.272 9.983 121.532 9.827C121.801 9.671 121.935 9.44567 121.935 9.151C121.935 8.79567 121.818 8.553 121.584 8.423C121.35 8.293 121.017 8.228 120.583 8.228H119.218ZM119.218 10.971V13.025H120.557C120.8 13.025 121.017 13.012 121.207 12.986C121.407 12.9513 121.576 12.895 121.714 12.817C121.862 12.739 121.974 12.635 122.052 12.505C122.13 12.375 122.169 12.2147 122.169 12.024C122.169 11.634 122.035 11.361 121.766 11.205C121.498 11.049 121.095 10.971 120.557 10.971H119.218ZM125.513 11.907C125.634 11.465 125.712 10.867 125.747 10.113C125.782 9.359 125.799 8.40567 125.799 7.253H130.336V14H129.179V8.228H126.878C126.869 9.15533 126.839 9.97867 126.787 10.698C126.744 11.4173 126.644 12.024 126.488 12.518C126.341 13.012 126.12 13.389 125.825 13.649C125.539 13.9003 125.153 14.026 124.668 14.026C124.633 14.026 124.599 14.026 124.564 14.026C124.529 14.026 124.49 14.0217 124.447 14.013V12.882C124.49 12.8907 124.547 12.895 124.616 12.895C125.058 12.895 125.357 12.5657 125.513 11.907ZM137.56 13.428C137.465 13.4973 137.348 13.571 137.209 13.649C137.071 13.727 136.902 13.805 136.702 13.883C136.503 13.9523 136.278 14.0087 136.026 14.052C135.775 14.104 135.493 14.13 135.181 14.13C134.046 14.13 133.184 13.8223 132.594 13.207C132.005 12.5917 131.71 11.7293 131.71 10.62C131.71 10.074 131.788 9.58433 131.944 9.151C132.109 8.71767 132.334 8.35367 132.62 8.059C132.906 7.75567 133.244 7.526 133.634 7.37C134.024 7.20533 134.449 7.123 134.908 7.123C135.394 7.123 135.827 7.20533 136.208 7.37C136.59 7.53467 136.902 7.77733 137.144 8.098C137.396 8.41867 137.565 8.81733 137.651 9.294C137.747 9.762 137.747 10.308 137.651 10.932H132.893C132.937 11.66 133.153 12.206 133.543 12.57C133.933 12.9253 134.514 13.103 135.285 13.103C135.805 13.103 136.252 13.0293 136.624 12.882C136.997 12.7347 137.309 12.5743 137.56 12.401V13.428ZM134.882 8.137C134.388 8.137 133.964 8.28867 133.608 8.592C133.253 8.89533 133.028 9.35467 132.932 9.97H136.559C136.594 9.346 136.451 8.88667 136.13 8.592C135.81 8.28867 135.394 8.137 134.882 8.137ZM143.593 11.01H140.33V14H139.186V7.253H140.33V10.035H143.593V7.253H144.737V14H143.593V11.01Z" fill="black" fill-opacity="0.7"/>
</svg>

<svg xmlns="http://www.w3.org/2000/svg" width="154" height="20" fill="none" viewBox="0 0 154 20">
    <rect width="154" height="20" fill="#000" fill-opacity=".05" rx="5"/>
    <path fill="#000" fill-opacity=".7" fill-rule="evenodd" d="M15.323 14.383a5.5 5.5 0 0 1-7.706-7.706l7.706 7.706Zm1.06-1.06L8.677 5.617a5.5 5.5 0 0 1 7.706 7.706ZM19 10a7 7 0 1 1-14 0 7 7 0 0 1 14 0Z" clip-rule="evenodd"/>
    <path fill="#000" fill-opacity=".7" d="M31.408 9.931h-4.784V14h-1.222V4.679h1.222v4.147h4.784V4.679h1.235V14h-1.235V9.931Zm8.614 3.497a3.51 3.51 0 0 1-.35.221 4.075 4.075 0 0 1-.508.234c-.199.07-.424.126-.676.169a4.185 4.185 0 0 1-.845.078c-1.135 0-1.997-.308-2.587-.923-.589-.615-.884-1.478-.884-2.587 0-.546.078-1.036.234-1.469.165-.433.39-.797.676-1.092a2.812 2.812 0 0 1 1.014-.689c.39-.165.815-.247 1.274-.247.486 0 .919.082 1.3.247.382.165.694.407.936.728.252.32.42.72.507 1.196.096.468.096 1.014 0 1.638h-4.758c.044.728.26 1.274.65 1.638.39.355.971.533 1.742.533.52 0 .967-.074 1.34-.221a4.69 4.69 0 0 0 .935-.481v1.027Zm-2.678-5.291a1.9 1.9 0 0 0-1.274.455c-.355.303-.58.763-.676 1.378h3.627c.035-.624-.108-1.083-.429-1.378-.32-.303-.736-.455-1.248-.455ZM50.59 10.62c0 .563-.087 1.062-.26 1.495a3.186 3.186 0 0 1-.69 1.105c-.285.295-.628.52-1.026.676a3.536 3.536 0 0 1-1.3.234 3.57 3.57 0 0 1-1.313-.234 2.719 2.719 0 0 1-1.027-.741c-.286-.33-.511-.745-.676-1.248-.156-.503-.234-1.096-.234-1.781 0-.563.017-1.1.052-1.612.035-.511.112-.984.234-1.417.121-.442.295-.836.52-1.183a2.865 2.865 0 0 1 1.612-1.17 5.1 5.1 0 0 1 .702-.156c.242-.035.485-.056.728-.065l.715-.026c.346-.026.637-.07.87-.13a2.5 2.5 0 0 0 .625-.247v1.04a2 2 0 0 1-.611.26 8.678 8.678 0 0 1-.767.117c-.494.043-.95.078-1.365.104a2.67 2.67 0 0 0-1.118.286 2.02 2.02 0 0 0-.923 1.092c-.174.477-.282 1.044-.325 1.703.45-1.04 1.3-1.56 2.548-1.56.424 0 .819.078 1.183.234.372.147.693.368.962.663.277.295.494.659.65 1.092.156.425.234.914.234 1.469Zm-3.276 2.483c.303 0 .58-.048.832-.143a1.9 1.9 0 0 0 .676-.455c.19-.208.338-.468.442-.78.104-.312.156-.68.156-1.105 0-.425-.052-.793-.156-1.105a2.009 2.009 0 0 0-.442-.767 1.699 1.699 0 0 0-.676-.455 2.155 2.155 0 0 0-.832-.156c-.598 0-1.096.2-1.495.598-.39.399-.585 1.014-.585 1.846 0 .433.052.81.156 1.131.104.312.247.572.429.78.19.208.412.364.663.468.251.095.529.143.832.143Zm7.895.819c-.155.407-.32.763-.493 1.066a3.55 3.55 0 0 1-.586.793 2.09 2.09 0 0 1-.727.481 2.368 2.368 0 0 1-.924.169 2.76 2.76 0 0 1-.48-.039 1.447 1.447 0 0 1-.404-.104v-1.105c.096.07.217.121.364.156a1.7 1.7 0 0 0 .482.065c.32 0 .585-.078.793-.234.208-.147.407-.386.598-.715l-2.744-7.202h1.261l2.145 5.694 2.133-5.694h1.105l-2.523 6.669Zm2.898-.897c.242-.147.433-.377.572-.689.138-.312.247-.706.325-1.183.078-.477.13-1.04.156-1.69.034-.65.065-1.387.09-2.21h4.642v5.772h1.014v2.899h-1.001L63.76 14h-5.018l-.117 1.924h-1.027v-2.899h.507Zm4.64 0V8.228h-2.47c-.043 1.274-.125 2.297-.246 3.068-.113.763-.312 1.339-.598 1.729h3.315Zm8.596.403c-.096.07-.213.143-.351.221a4.062 4.062 0 0 1-.507.234c-.2.07-.425.126-.676.169a4.185 4.185 0 0 1-.845.078c-1.136 0-1.998-.308-2.587-.923-.59-.615-.884-1.478-.884-2.587 0-.546.078-1.036.234-1.469.164-.433.39-.797.676-1.092a2.812 2.812 0 0 1 1.014-.689c.39-.165.814-.247 1.274-.247.485 0 .918.082 1.3.247.381.165.693.407.936.728.251.32.42.72.507 1.196.095.468.095 1.014 0 1.638h-4.758c.043.728.26 1.274.65 1.638.39.355.97.533 1.742.533.52 0 .966-.074 1.339-.221.372-.147.684-.308.936-.481v1.027Zm-2.678-5.291c-.494 0-.919.152-1.274.455-.356.303-.581.763-.676 1.378h3.627c.034-.624-.109-1.083-.43-1.378-.32-.303-.736-.455-1.247-.455Zm6.957.091V14h-1.144V8.228h-2.119v-.975h5.421v.975h-2.158ZM83.1 12.44l3.601-5.187h1.157V14h-1.144V8.826L83.126 14h-1.17V7.253H83.1v5.187Zm9.538 1.69c-.52 0-.993-.078-1.417-.234a3.1 3.1 0 0 1-1.066-.689 3.038 3.038 0 0 1-.676-1.105 4.36 4.36 0 0 1-.234-1.482c0-.546.078-1.036.234-1.469.164-.433.394-.797.689-1.092a2.849 2.849 0 0 1 1.079-.689 3.967 3.967 0 0 1 1.443-.247c.416 0 .797.048 1.144.143.346.087.632.217.858.39v1.027a3.033 3.033 0 0 0-.936-.403 3.86 3.86 0 0 0-1.053-.143c-.79 0-1.37.204-1.742.611-.364.407-.546 1.031-.546 1.872 0 .84.177 1.465.533 1.872.355.407.918.611 1.69.611.407 0 .78-.048 1.118-.143.346-.104.658-.234.936-.39v1.027a3.984 3.984 0 0 1-2.054.533Zm3.588-6.877h5.408V14h-1.144V8.228h-3.12V14h-1.144V7.253Zm10.667 6.877c-.52 0-.971-.121-1.352-.364a2.642 2.642 0 0 1-.897-1.001v3.536H103.5V7.253h1.001l.117 1.313c.225-.442.529-.793.91-1.053.381-.26.854-.39 1.417-.39.39 0 .763.074 1.118.221.364.139.68.355.949.65.277.286.494.65.65 1.092.165.433.247.945.247 1.534 0 .598-.082 1.118-.247 1.56a3.272 3.272 0 0 1-.663 1.092 2.777 2.777 0 0 1-.962.65 3.184 3.184 0 0 1-1.144.208Zm-.169-1.027c.598 0 1.079-.204 1.443-.611.373-.416.559-1.04.559-1.872 0-.815-.186-1.43-.559-1.846-.364-.425-.845-.637-1.443-.637-.295 0-.572.052-.832.156-.251.104-.472.26-.663.468-.182.2-.329.455-.442.767a3.457 3.457 0 0 0-.156 1.092c0 .416.052.78.156 1.092.113.312.26.572.442.78.191.208.412.364.663.468.26.095.537.143.832.143Zm8.459-.39a3.92 3.92 0 0 1-.299.494 2.253 2.253 0 0 1-1.105.793c-.242.087-.528.13-.858.13-.606 0-1.096-.169-1.469-.507-.372-.347-.559-.84-.559-1.482 0-.737.256-1.278.767-1.625.52-.347 1.257-.52 2.21-.52h1.261v-.559c0-.468-.121-.802-.364-1.001-.242-.2-.658-.299-1.248-.299-.416 0-.81.07-1.183.208-.372.13-.706.282-1.001.455V7.773c.243-.147.568-.29.975-.429a4.063 4.063 0 0 1 1.365-.221c.85 0 1.495.178 1.937.533.442.347.663.888.663 1.625v3.9c.009.095.013.195.013.299l.026.299c.009.087.018.16.026.221h-1.04a5.934 5.934 0 0 1-.078-.507 7.95 7.95 0 0 1-.026-.585l-.013-.195Zm-2.015.39c.356 0 .659-.074.91-.221.252-.147.455-.316.611-.507.156-.2.269-.39.338-.572.07-.19.104-.325.104-.403v-.494h-1.144c-.684 0-1.183.1-1.495.299-.303.19-.455.481-.455.871 0 .303.091.55.273.741.182.19.468.286.858.286Zm4.906-5.85h2.522c.815 0 1.43.143 1.846.429.416.277.624.715.624 1.313 0 .399-.104.72-.312.962-.199.234-.485.403-.858.507.962.156 1.443.689 1.443 1.599 0 .347-.069.646-.208.897a1.706 1.706 0 0 1-.572.598 2.535 2.535 0 0 1-.884.338c-.338.07-.706.104-1.105.104h-2.496V7.253Zm1.144.975v1.833h1.274c.434 0 .78-.078 1.04-.234.269-.156.403-.381.403-.676 0-.355-.117-.598-.351-.728-.234-.13-.567-.195-1.001-.195h-1.365Zm0 2.743v2.054h1.339c.243 0 .46-.013.65-.039.2-.035.369-.091.507-.169a.839.839 0 0 0 .338-.312.92.92 0 0 0 .117-.481c0-.39-.134-.663-.403-.819-.268-.156-.671-.234-1.209-.234h-1.339Zm6.295.936c.121-.442.199-1.04.234-1.794s.052-1.707.052-2.86h4.537V14h-1.157V8.228h-2.301c-.009.927-.039 1.75-.091 2.47-.043.72-.143 1.326-.299 1.82-.147.494-.368.871-.663 1.131-.286.251-.672.377-1.157.377h-.104a.595.595 0 0 1-.117-.013v-1.131c.043.009.1.013.169.013.442 0 .741-.33.897-.988Zm12.047 1.521c-.095.07-.212.143-.351.221a3.982 3.982 0 0 1-.507.234c-.199.07-.424.126-.676.169a4.183 4.183 0 0 1-.845.078c-1.135 0-1.997-.308-2.587-.923-.589-.615-.884-1.478-.884-2.587 0-.546.078-1.036.234-1.469.165-.433.39-.797.676-1.092a2.812 2.812 0 0 1 1.014-.689c.39-.165.815-.247 1.274-.247.486 0 .919.082 1.3.247.382.165.694.407.936.728.252.32.421.72.507 1.196.096.468.096 1.014 0 1.638h-4.758c.044.728.26 1.274.65 1.638.39.355.971.533 1.742.533.52 0 .967-.074 1.339-.221.373-.147.685-.308.936-.481v1.027Zm-2.678-5.291a1.9 1.9 0 0 0-1.274.455c-.355.303-.58.763-.676 1.378h3.627c.035-.624-.108-1.083-.429-1.378-.32-.303-.736-.455-1.248-.455Zm8.711 2.873h-3.263V14h-1.144V7.253h1.144v2.782h3.263V7.253h1.144V14h-1.144v-2.99Z"/>
</svg>
